X:1
T:[ID 2-33]
T:[ID 2-33]
T:Bezeichnung standardisiert: Tantz Tantz
T:Urheber unbekannt Datum in der hier transkribierten schriftlichen Quelle: 1767
C:Urheber unbekannt
C:Datum in der hier transkribierten schriftlichen Quelle: 1767
L:1/8
M:none
K:D
V:1 treble 
V:1
 A | df d2 | a3 f | g2 b/g/e/d/ | ce/c/ A2 | df d2 | a3 f | g2 b/g/e/c/ | d3 :: a | [ce]3 d | %11
{d} cB/c/ A2 | [ce]3 d | c/d/e/c/ A2 | df d2 | a3 f | g2 b/g/e/c/ | d3 :| %18

